X:1
T:Lincolnshire, 87.87.87 D
T:Lincolnshire, 87.87.87 D
T:Herbert Howard Booth, 1893, alt.
T:Public Domain Courtesy of the Cyber Hymnal™
C:Herbert Howard Booth, 1893, alt.
Z:Public Domain
Z:Courtesy of the Cyber Hymnal™
%%score ( 1 2 ) ( 3 4 )
L:1/8
Q:1/4=100
M:4/4
K:A
V:1 treble 
V:2 treble 
V:3 bass 
V:4 bass 
V:1
 [CE][CA] | [Ec]3 [Ec] [Ed]3 E | [Ed] [Ec]3 z2 [EG][EA] | [EB]3 [EB] [Ed]3 [DG] | [CA]6 [CE][CA] | %5
 [Ec]3 [Ec] [Ed]3 E | [Ed] [Ec]3 z2 [EG][EA] | [EB]3 [EB] [Ed]3 [DG] | [CA]4 z2 [EG][EA] | %9
 [EB]3 [EB] [Ed]3 [DG] | [CA] [Ec]3 z2 [Ec][Ec] | [Ac]3 [Ac] ([ce][Bd]) ([Ac][Bd]) | %12
 [GB]6 [Ge]>[Ge] | [Ae]3 [Ac] [EA]3 E | [DF]2 [Fd]4 [Ec]>[DB] | [CA]3 [CE] [Ec]3 [DB] | %16
 [CA]6 [Ec][Ec] | [EB]3 [Ec] d2 z x3 | [CA]2 [Ec]4 [Ec]>[Ec] | [Ac]3 [Ac] ([ce][Bd]) ([Ac][Bd]) | %20
 [GB]6 [Ge]>[Ge] | [Ae]3 [Ac] [EA]3 E | [DF]2 [Fd]4 [Ec][DB] | [CA]3 [CE] [Ec]3 [DB] | [CA]6 |] %25
V:2
 x2 | x7 E | x8 | x8 | x8 | x7 E | x8 | x8 | x8 | x8 | x8 | x8 | x8 | x7 E | x8 | x8 | x8 | %17
 x4 E3 G2 D | x8 | x8 | x8 | x7 E | x8 | x8 | x6 |] %25
V:3
 [A,,A,][A,,A,] | [A,,A,]3 A, [G,B,]3 [G,B,] | A, A,3 z2 [E,B,][E,F,] | %3
 [E,G,]3 [E,G,] [E,B,]3 [E,B,] | [A,,A,]6 [A,,A,][A,,A,] | [A,,A,]3 A, [G,B,]3 [G,B,] | %6
 A, A,3 z2 [E,B,][E,F,] | [E,G,]3 [E,G,] [E,B,]3 [E,B,] | [A,,A,]4 z2 [E,B,][E,F,] | %9
 [E,G,]3 [E,G,] [E,B,]3 [E,B,] | [A,,A,] [A,,A,]3 z2 A,A, | [A,E]3 [A,E] [A,E]2 [A,E]2 | %12
 [E,E]6 [E,D]>[E,D] | [A,C]3 [A,E] [A,C]3 [C,A,] | [D,A,]2 [D,A,]4 [E,A,]>[E,G,] | %15
 [E,A,]3 [E,A,] [E,G,]3 [E,G,] | [A,,A,]6 A,A, | [E,G,]3 [E,A,] [E,B,]2 [E,B,]2 x2 | %18
 [A,,A,]2 [A,,A,]4 A,>A, | [A,E]3 [A,E] [A,E]2 [A,E]2 | [E,E]6 [E,D]>[E,D] | %21
 [A,C]3 [A,E] [A,C]3 [C,A,] | [D,A,]2 [D,A,]4 [E,A,][E,G,] | [E,A,]3 [E,A,] [E,G,]3 [E,G,] | %24
 [A,,A,]6 |] %25
V:4
 x2 | x3 A, x4 | A, A,3 x4 | x8 | x8 | x3 A, x4 | A, A,3 x4 | x8 | x8 | x8 | x6 A,A, | x8 | x8 | %13
 x8 | x8 | x8 | x6 A,A, | x10 | x6 A,>A, | x8 | x8 | x8 | x8 | x8 | x6 |] %25

